src/status/16/indicator-keyboard.svg

<?xml version="1.0" encoding="UTF-8"?>
<svg width="16" height="16" version="1.1" xmlns="http://www.w3.org/2000/svg">
 <defs>
  <style id="current-color-scheme" type="text/css">.ColorScheme-Text { color:#363636; } .ColorScheme-Highlight { color:#a0b6cb; }</style>
 </defs>
 <path class="ColorScheme-Text" d="m3.5 1c-1.3807 0-2.5 1.1193-2.5 2.5s1.1193 2.5 2.5 2.5h1.5v4h-1.5c-1.3807 0-2.5 1.1193-2.5 2.5s1.1193 2.5 2.5 2.5 2.5-1.1193 2.5-2.5v-1.5h4v1.5c0 1.3807 1.1193 2.5 2.5 2.5s2.5-1.1193 2.5-2.5-1.1193-2.5-2.5-2.5h-1.5v-4h1.5c1.3807 0 2.5-1.1193 2.5-2.5s-1.1193-2.5-2.5-2.5-2.5 1.1193-2.5 2.5v1.5h-4v-1.5c0-1.3807-1.1193-2.5-2.5-2.5zm0 1c0.82843 0 1.5 0.67157 1.5 1.5v1.5h-1.5c-0.82843 0-1.5-0.67157-1.5-1.5s0.67157-1.5 1.5-1.5zm9 0c0.82843 0 1.5 0.67157 1.5 1.5s-0.67157 1.5-1.5 1.5h-1.5v-1.5c0-0.82843 0.67157-1.5 1.5-1.5zm-6.5 4h4v4h-4zm-2.5 5h1.5v1.5c0 0.82843-0.67157 1.5-1.5 1.5s-1.5-0.67157-1.5-1.5 0.67157-1.5 1.5-1.5zm7.5 0h1.5c0.82843 0 1.5 0.67157 1.5 1.5s-0.67157 1.5-1.5 1.5-1.5-0.67157-1.5-1.5z" fill="currentColor"/>
</svg>

<svg xmlns="http://www.w3.org/2000/svg" width="16" height="16">
    <defs>
        <style id="current-color-scheme" type="text/css">
            .ColorScheme-Highlight{color:#a0b6cb}
        </style>
    </defs>
    <path d="M3.5 1a2.5 2.5 0 0 0 0 5H5v4H3.5A2.5 2.5 0 1 0 6 12.5V11h4v1.5a2.5 2.5 0 1 0 2.5-2.5H11V6h1.5A2.5 2.5 0 1 0 10 3.5V5H6V3.5A2.5 2.5 0 0 0 3.5 1zm0 1A1.5 1.5 0 0 1 5 3.5V5H3.5a1.5 1.5 0 1 1 0-3zm9 0a1.5 1.5 0 1 1 0 3H11V3.5A1.5 1.5 0 0 1 12.5 2zM6 6h4v4H6zm-2.5 5H5v1.5A1.5 1.5 0 1 1 3.5 11zm7.5 0h1.5a1.5 1.5 0 1 1-1.5 1.5z" style="fill:currentColor;color:#050505;opacity:.7"/>
</svg>
